X:326
T: ES RITTEN DREI HERREN ZUM KUEHLEN WEIN
N: E0185A
O: Europa, Mitteleuropa, Deutschland, Schlesien, Neisse, Waltorf
R: erzaehlendes Volks - Lied, Sage, Familien - Geschichte
M: 2/4
L: 1/8
K: Bb
F | B2Bc | d2cB | dcB
F | B2Bc | d2cB | dcB
F | BBAB | c2BA | BGF
F | BBAB | c2BA | BGF

